X: 4
%
T: Airchie Brown
C:James Scott Skinner
O:Scotland
B:Keith Norman MacDonald : "The Skye collection of the best reels & strathspeys extant" : 1887
Z:Ralph Palmer
R:Reel
M:C
L:1/8
K:A
{/g}f | (eA).c.e a2 ec | Bcde {fg}fB-Bf | eAce a2 ec | Bcde cAA :| f | .e(aga faea) | .d.a .c.a .b.B.B.f |
.e(aga faea) | da Ba .cA-A.f | .e(aga faea) | .d.a .c.a .bB-B.d | (cA).c.e a2 .e.c | Bcde cAA :|


